X:1
T:Title
%%score ( 1 2 ) { 3 | 4 }
L:1/8
M:3/4
K:Ab
V:1 treble nm="Grand Piano, Staff 1"
V:2 treble 
V:3 bass nm="Choir Pad, Wiltshire, CM"
V:4 bass 
V:1
 [CE]2 C2 E2 | [EA]2 [EA]2 [DG]2 | [CA]2 [Fd]2 [Ec]2 | [EB]2 [DB]2 [Cc]2 | z2 G4 | %5
w: By~George~Thomas~Smart~(1776\-1867) * *|||||
 [DE]2 C2- [Cc]2 | A-[FA] A2 G2 | [DB]2 A2- [EA]2 | [DG]2 A2- [EA]2 | [EB]2 c2 d2 | %10
w: |||||
 [Ec]2 [Ac]2 [GB]2 | cA F2- [DF]2 | BA [EG]3 F | G-[DG] [CA]4- | [CA]4 z2 |] %15
w: |||||
V:2
 x6 | x6 | x6 | x6 | [CE]2 B,2 C2 | z2 E2 z2 | .E2 E4 | z2 C2 z2 | z2 C2 z2 | z2 E4 | x6 | %11
 E2 E2 z2 | F2 z2 z2 | .E2 z2 z2 | x6 |] %15
V:3
 A,2 A,4 | C2 C2 B,2 | A,2 A,4 | G,2 G,2 A,2 | E,2 E,4 | E,2 A,2 E,2 | A,2 C2 B,2 | G,2 A,2 C,2 | %8
 B,2 A,4 | G,2 A,2 B,2 | CD E4 | A,2 A,2 B,C | D2[K:bass] B,3 A, | B,2 A,4- | A,4 z2 |] %15
V:4
 A,,2 A,,2 C,2 | A,,2 E,4 | F,2 D,2 E,2 | E,2 A,,4 | A,,2 G,,2 A,,2 | B,,2 A,,4 | C,D, E,4 | %7
 E,2 z2 z2 | E,2 A,,2 C,2 | E,2 z2 G,2 | A,2 E,4 | C,2 D,4 | B,,2 E,4 | E,2 A,,4- | A,,4 z2 |] %15

